Newaita-dark/actions/32/zoom-1-to-2.svg

<?xml version="1.0" encoding="UTF-8"?>
<svg xmlns="http://www.w3.org/2000/svg" xmlns:xlink="http://www.w3.org/1999/xlink" width="32pt" height="32pt" viewBox="0 0 32 32" version="1.1">
<g id="surface1">
<path style=" stroke:none;fill-rule:nonzero;fill:rgb(47.058824%,56.470591%,61.176473%);fill-opacity:1;" d="M 3.308594 1.574219 C 2.207031 1.574219 1.324219 2.457031 1.324219 3.558594 L 1.324219 6.867188 L 3.308594 6.867188 L 3.308594 4.878906 C 3.308594 4.148438 3.898438 3.558594 4.628906 3.558594 L 6.613281 3.558594 L 6.613281 1.574219 Z M 25.136719 1.574219 L 25.136719 3.558594 L 27.121094 3.558594 C 27.855469 3.558594 28.445312 4.148438 28.445312 4.878906 L 28.445312 6.867188 L 30.429688 6.867188 L 30.429688 3.558594 C 30.429688 2.457031 29.542969 1.574219 28.445312 1.574219 Z M 1.324219 25.386719 L 1.324219 28.695312 C 1.324219 29.792969 2.207031 30.679688 3.308594 30.679688 L 6.613281 30.679688 L 6.613281 28.695312 L 4.628906 28.695312 C 3.898438 28.695312 3.308594 28.105469 3.308594 27.371094 L 3.308594 25.386719 Z M 28.445312 25.386719 L 28.445312 27.371094 C 28.445312 28.105469 27.855469 28.695312 27.121094 28.695312 L 25.136719 28.695312 L 25.136719 30.679688 L 28.445312 30.679688 C 29.542969 30.679688 30.429688 29.792969 30.429688 28.695312 L 30.429688 25.386719 Z M 28.445312 25.386719 "/>
<path style=" stroke:none;fill-rule:nonzero;fill:rgb(74.117649%,74.117649%,74.117649%);fill-opacity:1;" d="M 20.839844 8.1875 L 25.46875 8.1875 C 26.015625 8.1875 26.460938 8.632812 26.460938 9.179688 L 26.460938 23.074219 C 26.460938 23.621094 26.015625 24.066406 25.46875 24.066406 L 20.839844 24.066406 C 20.289062 24.066406 19.84375 23.621094 19.84375 23.074219 L 19.84375 9.179688 C 19.84375 8.632812 20.289062 8.1875 20.839844 8.1875 Z M 20.839844 8.1875 "/>
<path style=" stroke:none;fill-rule:nonzero;fill:rgb(74.117649%,74.117649%,74.117649%);fill-opacity:1;" d="M 4.960938 12.15625 L 9.59375 12.15625 C 10.140625 12.15625 10.585938 12.601562 10.585938 13.148438 L 10.585938 19.101562 C 10.585938 19.652344 10.140625 20.09375 9.59375 20.09375 L 4.960938 20.09375 C 4.414062 20.09375 3.96875 19.652344 3.96875 19.101562 L 3.96875 13.148438 C 3.96875 12.601562 4.414062 12.15625 4.960938 12.15625 Z M 4.960938 12.15625 "/>
<path style=" stroke:none;fill-rule:evenodd;fill:rgb(14.901961%,77.64706%,85.490197%);fill-opacity:1;" d="M 12.898438 11.511719 C 12.535156 11.511719 12.238281 11.808594 12.238281 12.171875 L 12.238281 20.109375 C 12.238281 20.613281 12.777344 20.929688 13.21875 20.691406 L 17.859375 16.722656 C 18.355469 16.308594 18.355469 15.976562 17.859375 15.5625 L 13.21875 11.589844 C 13.121094 11.539062 13.011719 11.511719 12.898438 11.511719 Z M 12.898438 11.511719 "/>
</g>
</svg>

<svg xmlns="http://www.w3.org/2000/svg" width="32pt" height="32pt" viewBox="0 0 32 32"><path d="M3.309 1.574A1.977 1.977 0 0 0 1.324 3.56v3.308H3.31V4.88c0-.73.59-1.32 1.32-1.32h1.984V1.574zm21.828 0V3.56h1.984c.734 0 1.324.59 1.324 1.32v1.988h1.985V3.56a1.98 1.98 0 0 0-1.985-1.985zM1.324 25.387v3.308A1.98 1.98 0 0 0 3.31 30.68h3.304v-1.985H4.63c-.73 0-1.32-.59-1.32-1.324v-1.984zm27.121 0v1.984a1.32 1.32 0 0 1-1.324 1.324h-1.984v1.985h3.308a1.982 1.982 0 0 0 1.985-1.985v-3.308zm0 0" fill="#78909c"/><path d="M20.84 8.188h4.629c.547 0 .992.445.992.992v13.894a.994.994 0 0 1-.992.992h-4.63a.994.994 0 0 1-.995-.992V9.18c0-.547.445-.992.996-.992zm0 0M4.96 12.156h4.634c.547 0 .992.446.992.992v5.954c0 .55-.445.992-.992.992H4.96a.991.991 0 0 1-.992-.992v-5.954c0-.546.445-.992.992-.992zm0 0" fill="#bdbdbd"/><path d="M12.898 11.512a.662.662 0 0 0-.66.66v7.937c0 .504.54.82.98.582l4.641-3.968c.496-.414.496-.746 0-1.16l-4.64-3.973a.693.693 0 0 0-.32-.078zm0 0" fill-rule="evenodd" fill="#26c6da"/></svg>
